;FLAVOR:Marlin
;TIME:5524
;Filament used: 2.77362m
;Layer height: 0.2
;MINX:94.267
;MINY:91.28
;MINZ:0.2
;MAXX:140.842
;MAXY:144.261
;MAXZ:53
;Generated with Cura_SteamEngine 4.13.1
M140 S50
M105
M190 S50
M104 S200
M105
M109 S200
M82 ;absolute extrusion mode
; Ender 3 Custom Start G-code
G92 E0 ; Reset Extruder
G28 ; Home all axes
G1 Z2.0 F3000 ; Move Z Axis up little to prevent scratching of Heat Bed
G1 X0.1 Y20 Z0.3 F5000.0 ; Move to start position
G1 X0.1 Y200.0 Z0.3 F1500.0 E15 ; Draw the first line
G1 X0.4 Y200.0 Z0.3 F5000.0 ; Move to side a little
G1 X0.4 Y20 Z0.3 F1500.0 E30 ; Draw the second line
G92 E0 ; Reset Extruder
G1 Z2.0 F3000 ; Move Z Axis up little to prevent scratching of Heat Bed
G1 X5 Y20 Z0.3 F5000.0 ; Move over to prevent blob squish
G92 E0
G92 E0
G1 F2700 E-5
;LAYER_COUNT:265
;LAYER:0
M107
G0 F6000 X106.236 Y95.996 Z0.2
;TYPE:SKIRT
G1 F2700 E0
G1 F1200 X106.875 Y95.31 E0.03118
G1 X107.854 Y94.454 E0.07443
G1 X108.032 Y94.316 E0.08193
G1 X108.797 Y93.773 E0.11313
G1 X109.606 Y93.298 E0.14433
G1 X110.452 Y92.893 E0.17553
G1 X111.691 Y92.449 E0.2193
G1 X112.593 Y92.187 E0.25054
G1 X113.908 Y91.822 E0.29593
G1 X114.276 Y91.715 E0.30868
G1 X115.186 Y91.491 E0.33985
G1 X116.113 Y91.346 E0.37106
G1 X117.048 Y91.28 E0.40223
G1 X118.266 Y91.314 E0.44276
G1 X118.422 Y91.327 E0.44797
G1 X118.852 Y91.371 E0.46234
G1 X119.697 Y91.475 E0.49066
G1 X119.93 Y91.507 E0.49848
G1 X121.182 Y91.69 E0.54057
G1 X122.747 Y91.943 E0.59329
G1 X124.028 Y92.145 E0.63643
G1 X124.271 Y92.173 E0.64456
G1 X124.672 Y92.235 E0.65806
G1 X124.983 Y92.297 E0.66861
G1 X125.831 Y92.43 E0.69716
G1 X126.16 Y92.477 E0.70821
G1 X127.673 Y92.713 E0.75914
G1 X128.112 Y92.791 E0.77397
G1 X128.375 Y92.843 E0.78289
G1 X129.286 Y93.064 E0.81407
G1 X130.175 Y93.362 E0.84525
G1 X131.036 Y93.734 E0.87645
G1 X131.862 Y94.179 E0.90765
G1 X132.647 Y94.692 E0.93884
G1 X133.385 Y95.27 E0.97002
G1 X134.072 Y95.909 E1.00123
G1 X134.702 Y96.604 E1.03243
G1 X135.36 Y97.482 E1.06892
G1 X135.53 Y97.734 E1.07903
G1 X136.021 Y98.533 E1.11022
G1 X136.516 Y99.541 E1.14757
G1 X136.987 Y100.628 E1.18697
G1 X137.323 Y101.503 E1.21815
G1 X137.645 Y102.665 E1.25825
G1 X137.776 Y103.263 E1.27861
G1 X138.371 Y105.831 E1.36629
G1 X138.997 Y108.223 E1.44853
G1 X139.718 Y110.692 E1.53407
G1 X140.116 Y111.958 E1.57821
G1 X140.325 Y112.604 E1.6008
G1 X140.575 Y113.508 E1.63199
G1 X140.748 Y114.43 E1.66319
G1 X140.841 Y115.363 E1.69438
G1 X140.842 Y116.593 E1.73529
G1 X140.822 Y116.957 E1.74741
G1 X140.8 Y117.276 E1.75805
G1 X140.783 Y117.478 E1.76479
G1 X140.75 Y117.812 E1.77595
G1 X140.662 Y118.566 E1.8012
G1 X140.604 Y119.007 E1.816
G1 X140.366 Y120.642 E1.87095
G1 X140.311 Y120.983 E1.88244
G1 X140.234 Y121.417 E1.8971
G1 X140.024 Y122.64 E1.93837
G1 X139.73 Y124.294 E1.99425
G1 X139.615 Y124.858 E2.01339
G1 X139.569 Y125.056 E2.02015
G1 X139.318 Y125.96 E2.05136
G1 X138.991 Y126.839 E2.08255
G1 X138.441 Y127.96 E2.12408
G1 X138.196 Y128.393 E2.14063
G1 X137.181 Y130.135 E2.20768
G1 X135.99 Y132.318 E2.29039
G1 X134.842 Y134.576 E2.37464
G1 X133.812 Y136.742 E2.45442
G1 X133.348 Y137.753 E2.49141
G1 X132.92 Y138.587 E2.52259
G1 X132.423 Y139.383 E2.5538
G1 X131.86 Y140.133 E2.585
G1 X131.235 Y140.832 E2.61618
G1 X130.341 Y141.654 E2.65658
G1 X130.217 Y141.756 E2.66192
G1 X129.468 Y142.321 E2.69312
G1 X128.674 Y142.819 E2.72429
G1 X127.84 Y143.248 E2.75549
G1 X126.972 Y143.605 E2.7867
G1 X126.077 Y143.886 E2.8179
G1 X125.162 Y144.09 E2.84908
G1 X124.232 Y144.215 E2.88029
G1 X123.296 Y144.261 E2.91146
G1 X122.358 Y144.226 E2.94268
G1 X121.693 Y144.153 E2.96493
G1 X121.161 Y144.076 E2.98281
G1 X119.415 Y143.793 E3.04164
G1 X114.171 Y142.903 E3.21855
G1 X111.465 Y142.403 E3.31008
G1 X110.89 Y142.287 E3.32959
G1 X110.08 Y142.129 E3.35704
G1 X108.705 Y141.846 E3.40373
G1 X108.144 Y141.715 E3.42289
G1 X107.673 Y141.592 E3.43908
G1 X107.344 Y141.501 E3.45043
G1 X106.94 Y141.382 E3.46444
G1 X106.052 Y141.079 E3.49565
G1 X105.48 Y140.837 E3.51631
G1 X105.016 Y140.624 E3.53329
G1 X103.269 Y139.799 E3.59755
G1 X101.538 Y139.042 E3.66038
G1 X100.843 Y138.728 E3.68575
G1 X100.006 Y138.306 E3.71693
G1 X99.207 Y137.814 E3.74814
G1 X98.453 Y137.256 E3.77933
G1 X97.75 Y136.635 E3.81053
G1 X96.927 Y135.753 E3.85066
G1 X96.821 Y135.626 E3.85616
G1 X96.251 Y134.881 E3.88736
G1 X95.747 Y134.09 E3.91855
G1 X95.312 Y133.259 E3.94975
G1 X94.949 Y132.394 E3.98095
G1 X94.662 Y131.501 E4.01215
G1 X94.451 Y130.587 E4.04335
G1 X94.319 Y129.659 E4.07452
G1 X94.267 Y128.722 E4.10574
G1 X94.302 Y127.684 E4.14028
G1 X94.341 Y127.205 E4.15626
G1 X94.368 Y126.918 E4.16585
G1 X94.42 Y126.436 E4.18198
G1 X94.506 Y125.813 E4.20289
G1 X94.686 Y124.733 E4.23931
G1 X94.759 Y124.337 E4.2527
G1 X94.864 Y123.785 E4.27139
G1 X94.969 Y123.293 E4.28812
G1 X95.586 Y120.703 E4.37668
G1 X96.109 Y118.191 E4.46202
G1 X96.546 Y115.742 E4.54476
G1 X96.623 Y115.245 E4.56149
G1 X96.704 Y114.777 E4.57728
G1 X96.908 Y113.861 E4.6085
G1 X97.184 Y112.979 E4.63924
G1 X97.291 Y112.682 E4.64974
G1 X97.66 Y111.784 E4.68203
G1 X97.88 Y111.313 E4.69932
G1 X98.698 Y109.619 E4.76188
G1 X99.714 Y107.354 E4.84445
G1 X100.62 Y105.174 E4.92297
G1 X100.703 Y104.981 E4.92996
G1 X101.122 Y104.113 E4.96201
G1 X101.366 Y103.66 E4.97913
G1 X102.767 Y101.113 E5.07581
G1 X103.022 Y100.628 E5.09404
G1 X103.494 Y99.818 E5.12522
G1 X103.851 Y99.294 E5.14631
G1 X104.078 Y98.981 E5.15917
G1 X105.563 Y96.865 E5.24515
G1 X105.657 Y96.734 E5.25051
G1 X106.236 Y95.996 E5.28171
G0 F6000 X106.55 Y96.243
G1 F1200 X107.18 Y95.571 E5.31235
G1 X108.099 Y94.77 E5.35289
G1 X108.277 Y94.632 E5.36038
G1 X109.029 Y94.1 E5.39102
G1 X109.823 Y93.635 E5.42162
G1 X110.655 Y93.241 E5.45224
G1 X111.803 Y92.833 E5.49277
G1 X112.699 Y92.573 E5.5238
G1 X113.974 Y92.219 E5.56781
G1 X114.387 Y92.099 E5.58211
G1 X115.282 Y91.88 E5.61276
G1 X116.192 Y91.74 E5.64338
G1 X117.11 Y91.679 E5.67398
G1 X118.232 Y91.713 E5.71132
G1 X118.388 Y91.726 E5.71652
G1 X118.803 Y91.768 E5.7304
G1 X119.648 Y91.872 E5.75871
G1 X119.873 Y91.902 E5.76626
G1 X121.118 Y92.084 E5.80811
G1 X122.715 Y92.343 E5.86192
G1 X123.86 Y92.523 E5.90047
G1 X124.21 Y92.568 E5.91221
G1 X124.611 Y92.63 E5.9257
G1 X124.938 Y92.695 E5.93679
G1 X125.721 Y92.818 E5.96316
G1 X126.099 Y92.873 E5.97586
G1 X127.612 Y93.109 E6.02679
G1 X128.034 Y93.183 E6.04104
G1 X128.297 Y93.235 E6.04996
G1 X129.192 Y93.453 E6.0806
G1 X130.064 Y93.747 E6.1112
G1 X130.907 Y94.116 E6.14181
G1 X131.716 Y94.557 E6.17246
G1 X132.483 Y95.066 E6.20307
G1 X133.202 Y95.64 E6.23367
G1 X133.87 Y96.275 E6.26433
G1 X134.48 Y96.964 E6.29493
G1 X135.028 Y97.706 E6.32561
G1 X135.198 Y97.958 E6.33572
G1 X135.68 Y98.743 E6.36636
G1 X136.149 Y99.699 E6.40178
G1 X136.62 Y100.787 E6.44121
G1 X136.95 Y101.647 E6.47185
G1 X137.254 Y102.75 E6.5099
G1 X137.387 Y103.36 E6.53067
G1 X137.98 Y105.917 E6.61797
G1 X138.611 Y108.331 E6.70096
G1 X139.34 Y110.827 E6.78744
G1 X139.735 Y112.081 E6.83117
G1 X139.944 Y112.727 E6.85376
G1 X140.189 Y113.615 E6.88439
G1 X140.357 Y114.52 E6.91501
G1 X140.445 Y115.436 E6.94562
G1 X140.443 Y116.572 E6.9834
G1 X140.423 Y116.936 E6.99552
G1 X140.402 Y117.243 E7.00576
G1 X140.385 Y117.445 E7.0125
G1 X140.353 Y117.766 E7.02323
G1 X140.266 Y118.515 E7.04831
G1 X140.208 Y118.949 E7.06287
G1 X139.97 Y120.584 E7.11783
G1 X139.917 Y120.913 E7.12891
G1 X139.827 Y121.419 E7.146
G1 X139.63 Y122.57 E7.18484
G1 X139.336 Y124.224 E7.24072
G1 X139.225 Y124.768 E7.25918
G1 X139.179 Y124.966 E7.26594
G1 X138.932 Y125.853 E7.29657
G1 X138.609 Y126.715 E7.32719
G1 X138.093 Y127.764 E7.36607
G1 X137.85 Y128.192 E7.38244
G1 X136.842 Y129.922 E7.44903
G1 X135.626 Y132.152 E7.53351
G1 X134.489 Y134.387 E7.61692
G1 X133.474 Y136.522 E7.69554
G1 X132.985 Y137.586 E7.73449
G1 X132.564 Y138.405 E7.76512
G1 X132.074 Y139.184 E7.79573
G1 X131.518 Y139.918 E7.82635
G1 X130.901 Y140.601 E7.85697
G1 X130.087 Y141.345 E7.89365
G1 X129.963 Y141.447 E7.89899
G1 X129.227 Y142.001 E7.92962
G1 X128.446 Y142.488 E7.96024
G1 X127.626 Y142.906 E7.99085
G1 X126.772 Y143.251 E8.02148
G1 X125.892 Y143.521 E8.0521
G1 X124.992 Y143.713 E8.08271
G1 X124.078 Y143.827 E8.11334
G1 X123.158 Y143.861 E8.14396
G1 X122.239 Y143.815 E8.17457
G1 X121.749 Y143.757 E8.19098
G1 X121.224 Y143.681 E8.20862
G1 X119.482 Y143.399 E8.26732
G1 X114.243 Y142.51 E8.44406
G1 X111.719 Y142.045 E8.52942
G1 X110.969 Y141.895 E8.55486
G1 X110.161 Y141.737 E8.58224
G1 X108.786 Y141.454 E8.62893
G1 X108.245 Y141.328 E8.64741
G1 X107.774 Y141.205 E8.6636
G1 X107.457 Y141.117 E8.67454
G1 X107.053 Y140.998 E8.68855
G1 X106.182 Y140.7 E8.71917
G1 X105.646 Y140.473 E8.73853
G1 X105.187 Y140.262 E8.75533
G1 X103.435 Y139.434 E8.81978
G1 X101.703 Y138.678 E8.88264
G1 X101.008 Y138.364 E8.908
G1 X100.186 Y137.949 E8.93863
G1 X99.403 Y137.464 E8.96926
G1 X98.666 Y136.913 E8.99987
G1 X97.979 Y136.3 E9.03049
G1 X97.234 Y135.496 E9.06695
G1 X97.128 Y135.369 E9.07245
G1 X96.569 Y134.637 E9.10308
G1 X96.076 Y133.86 E9.13369
G1 X95.653 Y133.043 E9.16429
G1 X95.301 Y132.192 E9.19492
G1 X95.025 Y131.313 E9.22556
G1 X94.826 Y130.414 E9.25619
G1 X94.706 Y129.502 E9.28678
G1 X94.666 Y128.582 E9.31741
G1 X94.701 Y127.717 E9.3462
G1 X94.74 Y127.238 E9.36219
G1 X94.766 Y126.961 E9.37144
G1 X94.818 Y126.479 E9.38757
G1 X94.9 Y125.879 E9.40771
G1 X95.08 Y124.805 E9.44393
G1 X95.152 Y124.412 E9.45722
G1 X95.257 Y123.86 E9.4759
G1 X95.358 Y123.386 E9.49202
G1 X95.98 Y120.772 E9.58139
G1 X96.5 Y118.277 E9.66616
G1 X96.938 Y115.823 E9.74907
G1 X97.018 Y115.307 E9.76644
G1 X97.098 Y114.847 E9.78197
G1 X97.298 Y113.948 E9.8126
G1 X97.56 Y113.114 E9.84167
G1 X97.667 Y112.817 E9.85217
G1 X98.023 Y111.953 E9.88325
G1 X98.24 Y111.487 E9.90035
G1 X99.044 Y109.82 E9.96191
G1 X100.103 Y107.462 E10.04788
G1 X100.987 Y105.332 E10.12458
G1 X101.07 Y105.139 E10.13157
G1 X101.474 Y104.303 E10.16245
G1 X101.717 Y103.853 E10.17946
G1 X103.114 Y101.313 E10.27588
G1 X103.376 Y100.815 E10.2946
G1 X103.839 Y100.02 E10.3252
G1 X104.175 Y99.529 E10.34498
G1 X104.417 Y99.195 E10.3587
G1 X105.888 Y97.098 E10.4439
G1 X105.982 Y96.967 E10.44926
G1 X106.55 Y96.243 E10.47987
G0 F6000 X106.865 Y96.491
G1 F1200 X107.484 Y95.833 E10.50991
G1 X108.344 Y95.086 E10.5478
G1 X108.522 Y94.948 E10.55529
G1 X109.26 Y94.427 E10.58534
G1 X110.041 Y93.973 E10.61539
G1 X110.858 Y93.59 E10.6454
G1 X111.916 Y93.217 E10.68271
G1 X112.806 Y92.958 E10.71354
G1 X114.114 Y92.595 E10.75869
G1 X114.499 Y92.483 E10.77202
G1 X115.377 Y92.269 E10.80208
G1 X116.27 Y92.134 E10.83212
G1 X117.171 Y92.078 E10.86214
G1 X118.199 Y92.111 E10.89635
G1 X118.355 Y92.124 E10.90156
G1 X118.754 Y92.165 E10.9149
G1 X119.599 Y92.269 E10.94322
G1 X119.815 Y92.298 E10.95047
G1 X121.054 Y92.479 E10.99211
G1 X122.622 Y92.733 E11.04494
G1 X123.983 Y92.948 E11.09077
G1 X124.149 Y92.964 E11.09632
G1 X124.55 Y93.026 E11.10981
G1 X124.86 Y93.088 E11.12033
G1 X125.669 Y93.215 E11.14757
G1 X126.037 Y93.268 E11.15993
G1 X127.55 Y93.504 E11.21086
G1 X127.956 Y93.576 E11.22458
G1 X128.219 Y93.628 E11.23349
G1 X129.097 Y93.842 E11.26355
G1 X129.952 Y94.133 E11.29359
G1 X130.778 Y94.498 E11.32363
G1 X131.568 Y94.935 E11.35365
G1 X132.316 Y95.441 E11.38369
G1 X133.017 Y96.01 E11.41372
G1 X133.665 Y96.639 E11.44376
G1 X134.255 Y97.324 E11.47383
G1 X134.697 Y97.93 E11.49877
G1 X134.867 Y98.182 E11.50888
G1 X135.338 Y98.952 E11.53891
G1 X135.781 Y99.857 E11.57242
G1 X136.253 Y100.947 E11.61193
G1 X136.576 Y101.79 E11.64195
G1 X136.863 Y102.835 E11.67799
G1 X136.999 Y103.457 E11.69917
G1 X137.589 Y106.003 E11.7861
G1 X138.226 Y108.439 E11.86984
G1 X138.954 Y110.931 E11.95619
G1 X139.355 Y112.204 E12.00058
G1 X139.564 Y112.85 E12.02316
G1 X139.803 Y113.721 E12.0532
G1 X139.965 Y114.609 E12.08323
G1 X140.048 Y115.509 E12.11329
G1 X140.044 Y116.55 E12.14791
G1 X140.024 Y116.914 E12.16004
G1 X140.003 Y117.209 E12.16987
G1 X139.986 Y117.411 E12.17662
G1 X139.955 Y117.721 E12.18698
G1 X139.869 Y118.464 E12.21186
G1 X139.813 Y118.891 E12.22618
G1 X139.575 Y120.526 E12.28113
G1 X139.523 Y120.843 E12.29182
G1 X139.445 Y121.282 E12.30665
G1 X139.237 Y122.5 E12.34774
G1 X138.943 Y124.154 E12.40362
G1 X138.835 Y124.677 E12.42138
G1 X138.789 Y124.875 E12.42814
G1 X138.546 Y125.745 E12.45819
G1 X138.227 Y126.59 E12.48823
G1 X137.744 Y127.568 E12.52451
G1 X137.505 Y127.991 E12.54066
G1 X136.48 Y129.75 E12.60838
G1 X135.283 Y131.944 E12.6915
G1 X134.114 Y134.243 E12.77729
G1 X133.08 Y136.42 E12.85745
G1 X132.621 Y137.418 E12.89398
G1 X132.208 Y138.222 E12.92405
G1 X131.725 Y138.985 E12.95408
G1 X131.177 Y139.703 E12.98412
G1 X130.568 Y140.369 E13.01414
G1 X129.833 Y141.036 E13.04715
G1 X129.709 Y141.138 E13.05249
G1 X128.987 Y141.681 E13.08254
G1 X128.219 Y142.157 E13.11259
G1 X127.413 Y142.563 E13.14261
G1 X126.574 Y142.897 E13.17264
G1 X125.708 Y143.155 E13.2027
G1 X124.823 Y143.336 E13.23274
G1 X123.926 Y143.437 E13.26276
G1 X123.023 Y143.459 E13.29281
G1 X121.805 Y143.361 E13.33345
G1 X121.288 Y143.286 E13.35082
G1 X119.549 Y143.004 E13.40942
G1 X114.316 Y142.116 E13.58596
G1 X111.623 Y141.619 E13.67704
G1 X111.048 Y141.503 E13.69655
G1 X110.242 Y141.346 E13.72386
G1 X108.867 Y141.063 E13.77055
G1 X108.346 Y140.941 E13.78835
G1 X107.875 Y140.818 E13.80454
G1 X107.57 Y140.733 E13.81507
G1 X107.166 Y140.614 E13.82908
G1 X106.312 Y140.321 E13.85911
G1 X105.813 Y140.109 E13.87714
G1 X105.358 Y139.9 E13.89379
G1 X103.628 Y139.082 E13.95744
G1 X101.867 Y138.313 E14.02135
G1 X101.172 Y137.999 E14.04672
G1 X100.367 Y137.591 E14.07674
G1 X99.6 Y137.114 E14.10678
G1 X98.879 Y136.57 E14.13682
G1 X98.209 Y135.965 E14.16684
G1 X97.541 Y135.24 E14.19963
G1 X97.435 Y135.113 E14.20513
G1 X96.888 Y134.395 E14.23515
G1 X96.406 Y133.631 E14.2652
G1 X95.994 Y132.827 E14.29525
G1 X95.654 Y131.99 E14.3253
G1 X95.39 Y131.127 E14.35531
G1 X95.203 Y130.243 E14.38536
G1 X95.095 Y129.347 E14.41538
G1 X95.067 Y128.444 E14.44543
G1 X95.1 Y127.749 E14.46857
G1 X95.139 Y127.27 E14.48456
G1 X95.164 Y127.004 E14.49344
G1 X95.216 Y126.522 E14.50957
G1 X95.295 Y125.944 E14.52897
G1 X95.474 Y124.876 E14.56499
G1 X95.545 Y124.487 E14.57814
G1 X95.65 Y123.935 E14.59683
G1 X95.747 Y123.479 E14.61233
G1 X96.365 Y120.882 E14.70112
G1 X96.891 Y118.357 E14.78691
G1 X97.335 Y115.866 E14.87106
G1 X97.413 Y115.368 E14.88783
G1 X97.491 Y114.917 E14.90305
G1 X97.689 Y114.036 E14.93309
G1 X97.937 Y113.25 E14.9605
G1 X98.044 Y112.953 E14.971
G1 X98.386 Y112.121 E15.00092
G1 X98.6 Y111.661 E15.01779
G1 X99.412 Y109.979 E15.07991
G1 X100.46 Y107.643 E15.16507
G1 X101.355 Y105.49 E15.24262
G1 X101.438 Y105.297 E15.24961
G1 X101.826 Y104.493 E15.2793
G1 X102.067 Y104.046 E15.29619
G1 X103.448 Y101.535 E15.3915
G1 X103.729 Y101.001 E15.41157
G1 X104.185 Y100.221 E15.44162
G1 X104.499 Y99.764 E15.46007
G1 X104.705 Y99.48 E15.47174
G1 X106.213 Y97.331 E15.55905
G1 X106.307 Y97.2 E15.56442
G1 X106.865 Y96.491 E15.59442
G1 F2700 E10.59442
G0 F6000 X118.611 Y129.051
G1 F2700 E15.59442
G1 F1200 X120.33 Y129.211 E15.65185
G1 X120.308 Y129.339 E15.65617
G1 X118.611 Y129.051 E15.71342
G0 F6000 X117.947 Y128.588
G1 F1200 X120.798 Y128.853 E15.80865
G1 X120.634 Y129.8 E15.84061
G1 X116.182 Y129.044 E15.99081
G1 X115.907 Y128.973 E16.00026
G1 X114.641 Y128.761 E16.04295
G1 X114.458 Y128.712 E16.04925
G1 X113.652 Y128.568 E16.07648
G1 X113.633 Y128.56 E16.07717
G1 X113.263 Y128.472 E16.08982
G1 X112.813 Y128.396 E16.105
G1 X112.792 Y128.333 E16.10721
G1 X112.56 Y127.901 E16.12351
G1 X112.469 Y127.774 E16.12871
G1 X114.157 Y127.943 E16.18513
G1 X114.634 Y128.07 E16.20155
G1 X114.889 Y128.105 E16.21011
G1 X115.739 Y128.184 E16.23851
G1 X115.77 Y128.195 E16.2396
G1 X116.241 Y128.326 E16.25586
G1 X116.532 Y128.367 E16.26563
G1 X117.23 Y128.431 E16.28895
G1 X117.947 Y128.588 E16.31336
G0 F6000 X117.984 Y128.19
G1 F1200 X121.266 Y128.496 E16.42299
G1 X121.027 Y129.875 E16.46954
G1 X120.994 Y130.267 E16.48263
G1 X116.138 Y129.443 E16.64645
G1 X115.841 Y129.368 E16.65664
G1 X114.603 Y129.161 E16.69838
G1 X114.388 Y129.106 E16.70576
G1 X113.516 Y128.95 E16.73523
G1 X113.196 Y128.867 E16.74622
G1 X112.661 Y128.776 E16.76427
G1 X112.51 Y128.736 E16.76947
G1 X112.386 Y128.407 E16.78116
